symbolic/48x48/status/gtk-missing-image.svg

<svg xmlns="http://www.w3.org/2000/svg" width="48" height="48" version="1">
 <path style="opacity:0.2" d="M 5.9999,7 C 4.8919,7 3.9999,7.892 3.9999,9 V 41 C 3.9999,42.108 4.8919,43 5.9999,43 H 28 L 44,27 V 9 C 44,7.892 43.108,7 42,7 Z"/>
 <path style="fill:#b2bfd9" d="M 5.9999,6 C 4.8919,6 3.9999,6.892 3.9999,8 V 40 C 3.9999,41.108 4.8919,42 5.9999,42 H 28 L 44,26 V 8 C 44,6.892 43.108,6 42,6 Z"/>
 <path style="opacity:0.3" d="M 16.5,19.688 26.437,30.938 32.813,24.75 38.101,30.039 36.999,31 32.999,36 H 8.9991 V 28.5 Z"/>
 <path style="fill:#fafafa" d="M 44,26 H 30 C 28.895,26 28,26.895 28,28 V 42 Z"/>
 <path style="opacity:0.2;fill:#f4f4f7" d="M 30,26 C 28.895,26 28,26.895 28,28 V 29 C 28,27.895 28.895,27 30,27 H 43 L 44,26 Z"/>
 <path style="opacity:0.2;fill:#f4f4f7" d="M 6,6 C 4.892,6 4,6.892 4,8 V 9 C 4,7.892 4.892,7 6,7 H 42 C 43.108,7 44,7.892 44,9 V 8 C 44,6.892 43.108,6 42,6 Z"/>
</svg>

<svg xmlns="http://www.w3.org/2000/svg" width="48" height="48" version="1"><path style="opacity:.2" d="M6 7c-1.108 0-2 .892-2 2v32c0 1.108.892 2 2 2h22l16-16V9c0-1.108-.892-2-2-2z"/><path style="fill:#b2bfd9" d="M6 6c-1.108 0-2 .892-2 2v32c0 1.108.892 2 2 2h22l16-16V8c0-1.108-.892-2-2-2z"/><path style="opacity:.3" d="m16.5 19.688 9.937 11.25 6.376-6.188 5.288 5.289-1.102.961-4 5h-24v-7.5z"/><path style="fill:#fafafa" d="M44 26H30a2 2 0 0 0-2 2v14z"/><path style="opacity:.2;fill:#f4f4f7" d="M30 26a2 2 0 0 0-2 2v1a2 2 0 0 1 2-2h13l1-1zM6 6c-1.108 0-2 .892-2 2v1c0-1.108.892-2 2-2h36c1.108 0 2 .892 2 2V8c0-1.108-.892-2-2-2z"/></svg>
